public/dragon.svg

<?xml version="1.0" encoding="UTF-8" standalone="no"?>
<svg
   id="Dragon"
   version="1.0"
   xml:space="preserve"
   viewBox="6.37 18.536 464.873 332.941"
   enable-background="new 6.37 18.536 464.873 332.941"
   y="0px"
   x="0px"
   sodipodi:docname="dragon.svg"
   inkscape:version="1.2.1 (9c6d41e410, 2022-07-14)"
   xmlns:inkscape="http://www.inkscape.org/namespaces/inkscape"
   xmlns:sodipodi="http://sodipodi.sourceforge.net/DTD/sodipodi-0.dtd"
   xmlns="http://www.w3.org/2000/svg"
   xmlns:svg="http://www.w3.org/2000/svg"><defs
   id="defs142" /><sodipodi:namedview
   id="namedview140"
   pagecolor="#ffffff"
   bordercolor="#000000"
   borderopacity="0.25"
   inkscape:showpageshadow="2"
   inkscape:pageopacity="0.0"
   inkscape:pagecheckerboard="0"
   inkscape:deskcolor="#d1d1d1"
   showgrid="false"
   inkscape:zoom="2.4448776"
   inkscape:cx="232.32247"
   inkscape:cy="166.4705"
   inkscape:window-width="1920"
   inkscape:window-height="1046"
   inkscape:window-x="1909"
   inkscape:window-y="78"
   inkscape:window-maximized="1"
   inkscape:current-layer="Dragon" />
  <!-- set the fill color to light grey-->
  <path
   id="Body"
   d="m67.307 53.163c0.174-0.234 3.874-11.738 11.875-20.455 8.382-9.131 21.095-15.455 21.883-13.951 0.993 1.896-8.726 3.313-16.844 15.631-3.366 5.107-5.477 11.564-5.692 17.265 0 0 0.747 3.079 1.26 3.22 0.513 0.14 1.563-0.018 1.866-0.561 0.303-0.542-3.453-7.792 10.685-18.664 12.333-9.483 30.889-12.621 31.262-12.026 0.207 0.33-9.295 5.423-16.611 10.86-5.885 4.374-9.963 9.263-9.425 9.846 1.207 1.306 53.378-15.2 54.102-14.302s-17.007 7.139-18.407 18.407c-0.8 6.44 8.936 5.996 22.747 6.929 13.812 0.934 26.258 1.844 26.293 2.543 0.035 0.7-16.751 3.687-19.504 10.125-2.753 6.439-0.513 12.085 4.246 13.578s28.229 4.316 28.439 3.71-8.166-5.879-8.398-6.93c-0.233-1.05 10.498-6.858 15.748-9.028 5.249-2.17 12.831-4.619 12.948-5.669s-2.729-3.92-6.789-6.789c-4.059-2.869-8.889-4.129-8.749-5.459s19.48-5.016 44.303-8.679c10.498-1.68 21.486-4.689 36.045-6.439 14.558-1.749 30.865-3.919 43.113-2.449s29.465 4.759 43.322 11.968 31.916 21.977 34.436 24.566c2.519 2.589 5.529 4.76 4.688 6.02-0.84 1.26-25.196-0.7-37.514 10.778s-15.468 15.747-16.378 24.006c-0.909 8.259-0.069 13.928 1.75 18.197 1.82 4.27 5.18 9.869 4.34 11.059s-21.066-4.13-26.105 4.97c-5.039 9.098-2.031 17.917-0.561 21.836 1.47 3.92 4.97 7.454 4.34 8.399-0.63 0.944-12.527-2.007-22.188 3.639-9.658 5.646-14.883 10.405-14.978 11.479-0.094 1.074 7.604 2.473 11.524 2.985s9.473 1.073 12.179 1.073 8.958-1.913 9.519-0.887c0.562 1.025-9.146 6.672-10.265 13.998-1.12 7.326-1.399 10.404 0.606 14.324s4.386 9.846 10.451 9.426c6.066-0.42 11.385-1.588 13.531-1.82s4.666-1.727 5.6-1.213 0.652 0.605 0.187 1.26c-0.467 0.652-8.493 4.666-10.685 7.934-2.193 3.266-5.319 9.844-4.854 12.783 0.467 2.939 3.686 6.02 8.912 3.453s6.252-4.525 4.945 2.333c-1.305 6.858 1.354 10.452 7.746 9.005 6.394-1.445 13.812-3.359 19.365-13.158 5.553-9.797 6.672-17.496 7.278-26.361s-2.66-19.83-7.373-30.608c-4.712-10.778-7.092-27.902-7.278-33.035-0.188-5.133-0.233-20.25 4.105-29.535 4.339-9.286 11.432-20.018 17.917-25.29s19.41-12.178 20.483-13.531c1.072-1.353 4.713-5.646 3.125-9.938-1.586-4.293-3.825-4.479-5.271-6.112-1.445-1.633-1.98-2.604-2.006-3.359-0.025-0.756 5.832-4.433 10.824-5.926 4.994-1.493 19.971-2.753 26.783-1.026 6.812 1.726 19.738 2.753 22.35 5.086 2.613 2.333 4.434 8.632 0 16.424-4.432 7.792-7.744 17.03-9.098 19.41s-6.438 11.432-8.213 13.578c-1.773 2.146-5.459 5.926-6.111 6.065-0.652 0.141-3.033 0.934-3.5-1.166s-3.219-11.945-5.318-15.258c-2.102-3.312-6.906-7.419-8.68-8.025s-11.245 5.973-12.879 8.398c-1.633 2.427-8.071 16.284-9.004 19.177-0.934 2.894-3.639 16.611-2.894 22.07 0.746 5.459 4.806 18.338 6.812 23.377 2.007 5.039 10.125 20.529 11.386 23.936s6.952 21.791 6.999 23.844c0.047 2.054 2.053 19.69 0.605 26.036s-5.412 20.018-6.719 22.63c-1.306 2.613-10.777 18.244-13.391 21.37s-11.571 12.6-18.479 16.33c-6.904 3.732-16.75 7.934-20.996 9.52s-32.195 3.5-39.709 3.174c-7.512-0.328-28.647-1.588-34.994-2.707s-11.898-1.398-12.271-0.887c-0.374 0.514-0.232 7.793-5.086 10.219s-13.764 4.619-17.964 6.111c-4.199 1.494-16.657 3.312-20.204 4.014-3.546 0.699-19.271 3.967-21.463 4.76s-11.887 2.014-12.365 1.959c-0.479-0.053-2.706 2.287-4.619 2.986s-6.252 0.467-6.719-0.561c-0.466-1.025-1.038-1.025-1.248-0.99s-1.128 1.354-1.435 1.33c-0.306-0.027-0.708-0.736-1.12-0.771-0.411-0.035-2.729 2.135-3.185 2.344-0.455 0.211-0.639 0.123-0.91 0-0.271-0.121-0.481-1.318-0.525-1.504-0.044-0.184 0.63-2.555 1.05-3.162 0.42-0.605-0.933-1.213-0.327-1.865s-0.28-6.205 0.233-10.219c0.513-4.014 4.946-7.277 6.859-7.84 1.913-0.559 6.019-1.586 6.486-1.818 0.466-0.232 4.479-2.193 5.272-2.893 0.793-0.701 6.392-2.66 7.092-2.895 0.7-0.232 3.873-1.445 4.573-1.727 0.7-0.279 2.146-0.652 1.913-2.287-0.233-1.633-1.374-3.877-1.773-4.104-0.399-0.229-13.018-2.707-18.15-4.246-5.133-1.541-11.012-4.107-12.132-4.807-1.12-0.699-2.379-1.773-2.939-1.4s0.187 2.334-0.513 3.221c-0.7 0.887-9.005 8.818-11.898 12.037-2.893 3.221-6.206 9.053-9.052 12.646-2.846 3.592-4.386 7.838-9.052 9.053-4.666 1.213-14.372 0.232-19.831 0.279s-9.892-0.654-13.858 0.047c-3.966 0.699-9.752 1.912-10.592 1.771s-1.545-0.461-1.866-0.42c-0.321 0.041-1.161 0.566-1.528 0.67-0.367 0.105-1.907 0.402-2.205 0.246-0.297-0.158-1.522 0.018-1.802 0.156-0.28 0.141-1.286 0.484-1.452 0.404-0.167-0.082-0.741-0.66-1.271-0.66s-2.31 0.35-2.636 0.279c-0.327-0.068-2.45 0.047-3.826 0.047s-2.8 0.07-3.5 0.49c-0.7 0.42-1.959 0.678-2.52 0.631-0.561-0.049-1.167 0.467-1.33 0.512-0.164 0.047-0.467-0.561-0.49-0.84s0.934-1.959 1.423-2.893 0.256-1.025 1.33-1.891c1.074-0.863 1.236-0.979 1.727-1.375 0.49-0.398 0.886-0.654 0.84-0.748-0.047-0.092-0.315-0.049-0.63 0.094-0.315 0.145-2.403 0.957-2.963 1.307-0.56 0.352-1.68 1.189-2.193 1.656s-1.237 1.145-1.4 0.957c-0.164-0.188-0.449-1.441-0.42-1.727 0.029-0.287 1.33-4.199 1.563-4.598 0.233-0.396 0.537-1.072 1.027-1.516 0.49-0.443-0.14-0.701-0.537-0.373-0.396 0.326-1.516 0.725-1.609 1.002-0.094 0.281-0.397-0.699-0.187-1.119s0.723-1.051 1.027-1.492c0.303-0.443 1.003-1.098 1.33-1.307 0.327-0.211-0.84-0.42-1.283-0.281-0.443 0.141-1.19-0.068-0.91-0.467 0.28-0.395 2.426-2.729 3.033-3.033 0.607-0.303 3.593-1.91 3.919-2.006 0.326-0.094 1.073-0.139 1.33-0.232 0.256-0.094 2.986-1.959 4.339-2.311 1.354-0.35 3.43-0.303 3.966-0.117 0.537 0.189 2.123 0.281 2.566 0.002s1.33-1.891 1.89-2.029c0.56-0.141 5.319-1.26 6.929-1.562 1.609-0.305 6.952-1.518 8.235-1.562 1.283-0.047 6.579 0.068 7.069 0.139 0.49 0.07 2.753 0.143 2.916 0.117 0.164-0.023 1.167-0.232 1.283-0.35 0.117-0.117-3.919-0.746-7.815-1.074-3.896-0.326-8.889-0.908-12.318-1.049s-9.262 0.141-11.245 0.979c-1.983 0.84-4.34 1.68-4.853 1.633-0.514-0.047-1.283 0.467-1.843 0.584s-1.913 0.094-2.566-0.068c-0.653-0.164-1.68-0.725-2.123-0.701s-2.496-0.023-3.383 0.701c-0.886 0.723-1.563 0.908-1.936 1.096-0.374 0.188-1.359 0.135-1.394-0.059-0.035-0.191 0.28-1.4 0.507-1.785s1.26-2.781 1.487-3.078c0.228-0.299 0.542-1.33 0.7-1.523 0.158-0.191 0.403-1.084 0.595-1.434 0.192-0.352 0.487-0.973 0.42-1.121s-1.522 0.402-1.662 0.367c-0.14-0.035-0.963 0.666-1.26 0.805-0.297 0.141-1.161 0.086-1.236-0.08s0.711-1.824 0.886-2.053c0.175-0.23 1.354-1.014 1.493-1.168 0.14-0.154 1.062-1.195 1.12-1.398 0.058-0.205 0.21-0.795 0.093-0.934-0.117-0.141-1.709-0.572-1.773-0.84-0.064-0.27 2.566-3.732 4.899-5.039 2.333-1.308 3.079-1.681 3.312-2.054 0.233-0.374 0.233-1.681 1.213-2.192 0.98-0.514 2.66-0.935 3.173-1.354 0.513-0.421 0.391-0.781 0.98-1.119 0.589-0.339 11.198-0.888 17.777-0.28 6.579 0.606 11.198 0.373 14.837-2.893 3.64-3.268 6.719-11.525 4.619-16.564s1.12-2.566-4.152-5.926c-5.273-3.359-9.659-12.878-9.939-15.117-0.28-2.24-1.353 0.141-4.152-2.894s-8.865-22.116-9.705-25.616c-0.84-3.499 0.093-5.926 0.466-6.484 0.374-0.562-1.3-2.315-1.68-4.293-0.379-1.979 0.233-14.932 1.213-18.758 0.979-3.826 5.786-14.791 6.859-16.238 1.073-1.446 1.659-1.63 1.82-1.912 0.16-0.283-0.42-2.8 0.373-8.726s4.666-12.599 5.179-13.485 0.653-1.306 0.7-1.726c0.147-1.323-2.347-3.332-2.706-4.946-0.56-2.52-0.42-3.22-0.373-3.826 0.046-0.606-0.653-2.041-1.633-2.52s-4.386 2.753-10.592 4.433-11.041 0.735-12.412 0.747c-1.37 0.012-18.943 7.838-26.456 12.645-7.512 4.806-13.718 8.818-14.838 9.379-1.12 0.56-4.666 6.346-5.739 6.812-1.073 0.467-1.633 1.12-1.4 1.727 0.233 0.606 0.56 1.866 0.84 2.38 0.28 0.513 0.934 0.857 0.7 1.399-0.233 0.543-1.12 0.42-1.354 0.327-0.233-0.094-1.306-1.073-1.633-1.167-0.327-0.093-1.96-0.7-2.24-1.166-0.28-0.467-0.747-0.327-1.4-0.98s-6.532 0.98-8.585 0.514c-2.053-0.467-5.646-1.727-5.926-2.286-0.28-0.561-0.98-0.887-1.307-0.7s-0.28 1.913 0.187 2.893c0.467 0.98 1.614 2.361 1.493 2.707-0.121 0.345-0.902 0.11-1.26-0.094s-6.346-6.719-6.672-8.818-0.325-2.407-0.513-2.52-3.266-0.094-6.393-6.532c-3.126-6.439-3.219-8.959-2.473-12.646 0.747-3.686-1.104-5.926-0.164-8.463 1.33-3.587 6.923-3.843 10.936-5.757 4.013-1.912 13-8.626 17.643-21.102 4.371-11.744 4.488-15.457 4.404-16.814-0.053-0.84-1.266-4.639-0.811-7.775 0.268-1.849 8.387-8.812 11.338-13.484 2.783-4.404 9.985-10.592 11.059-11.291 1.073-0.7 1.849-1.232 2.1-1.447 0.286-0.244 0.187-2.612 0.513-3.639 0.327-1.027 1.213-2.054 1.633-2.333 0.383-0.279 1.451-0.575 1.807-1.054zm142.17 79.817c0.14-1.096-0.222-10.545-0.805-10.988s-4.165 4.444-4.97 5.845c-0.805 1.399-3.289 5.319-3.395 6.894-0.104 1.575-0.385 4.164 1.015 5.564 1.4 1.399 4.934 3.43 5.424 3.534 0.49 0.105 0.805-0.56 1.05-1.399s0.91-4.619 1.05-5.739c0.13-1.11 0.48-2.6 0.62-3.7zm-12.56-45.143c-0.828-0.7-7.769 3.22-9.273 6.438-1.505 3.22-4.06 7.104-2.869 10.709 1.189 3.604 4.899 5.424 7.733 5.494 2.835 0.069 7.419 2.064 9.659 2.345 2.24 0.279 3.429 0.979 3.884 0.385s-1.295-11.198-2.345-13.193c-1.05-1.994-2.415-5.308-2.823-5.914-0.41-0.601-3.14-5.56-3.96-6.259z"
   style="fill:#ececec" />
</svg>

<?xml version="1.0" encoding="UTF-8" standalone="no"?>
<!DOCTYPE svg PUBLIC "-//W3C//DTD SVG 1.1//EN" "http://www.w3.org/Graphics/SVG/1.1/DTD/svg11.dtd">
<svg width="100%" height="100%" viewBox="0 0 480 480" version="1.1" xmlns="http://www.w3.org/2000/svg" xmlns:xlink="http://www.w3.org/1999/xlink" xml:space="preserve" xmlns:serif="http://www.serif.com/" style="fill-rule:evenodd;clip-rule:evenodd;stroke-linejoin:round;stroke-miterlimit:2;">
    <g transform="matrix(1.00185,0,0,0.970277,0.756522,60.4919)">
        <path id="Body" d="M67.307,53.163C67.481,52.929 71.181,41.425 79.182,32.708C87.564,23.577 100.277,17.253 101.065,18.757C102.058,20.653 92.339,22.07 84.221,34.388C80.855,39.495 78.744,45.952 78.529,51.653C78.529,51.653 79.276,54.732 79.789,54.873C80.302,55.013 81.352,54.855 81.655,54.312C81.958,53.77 78.202,46.52 92.34,35.648C104.673,26.165 123.229,23.027 123.602,23.622C123.809,23.952 114.307,29.045 106.991,34.482C101.106,38.856 97.028,43.745 97.566,44.328C98.773,45.634 150.944,29.128 151.668,30.026C152.392,30.924 134.661,37.165 133.261,48.433C132.461,54.873 142.197,54.429 156.008,55.362C169.82,56.296 182.266,57.206 182.301,57.905C182.336,58.605 165.55,61.592 162.797,68.03C160.044,74.469 162.284,80.115 167.043,81.608C171.802,83.101 195.272,85.924 195.482,85.318C195.692,84.712 187.316,79.439 187.084,78.388C186.851,77.338 197.582,71.53 202.832,69.36C208.081,67.19 215.663,64.741 215.78,63.691C215.897,62.641 213.051,59.771 208.991,56.902C204.932,54.033 200.102,52.773 200.242,51.443C200.382,50.113 219.722,46.427 244.545,42.764C255.043,41.084 266.031,38.075 280.59,36.325C295.148,34.576 311.455,32.406 323.703,33.876C335.951,35.346 353.168,38.635 367.025,45.844C380.882,53.053 398.941,67.821 401.461,70.41C403.98,72.999 406.99,75.17 406.149,76.43C405.309,77.69 380.953,75.73 368.635,87.208C356.317,98.686 353.167,102.955 352.257,111.214C351.348,119.473 352.188,125.142 354.007,129.411C355.827,133.681 359.187,139.28 358.347,140.47C357.507,141.66 337.281,136.34 332.242,145.44C327.203,154.538 330.211,163.357 331.681,167.276C333.151,171.196 336.651,174.73 336.021,175.675C335.391,176.619 323.494,173.668 313.833,179.314C304.175,184.96 298.95,189.719 298.855,190.793C298.761,191.867 306.459,193.266 310.379,193.778C314.299,194.29 319.852,194.851 322.558,194.851C325.264,194.851 331.516,192.938 332.077,193.964C332.639,194.989 322.931,200.636 321.812,207.962C320.692,215.288 320.413,218.366 322.418,222.286C324.423,226.206 326.804,232.132 332.869,231.712C338.935,231.292 344.254,230.124 346.4,229.892C348.546,229.66 351.066,228.165 352,228.679C352.934,229.193 352.652,229.284 352.187,229.939C351.72,230.591 343.694,234.605 341.502,237.873C339.309,241.139 336.183,247.717 336.648,250.656C337.115,253.595 340.334,256.676 345.56,254.109C350.786,251.542 351.812,249.584 350.505,256.442C349.2,263.3 351.859,266.894 358.251,265.447C364.645,264.002 372.063,262.088 377.616,252.289C383.169,242.492 384.288,234.793 384.894,225.928C385.5,217.063 382.234,206.098 377.521,195.32C372.809,184.542 370.429,167.418 370.243,162.285C370.055,157.152 370.01,142.035 374.348,132.75C378.687,123.464 385.78,112.732 392.265,107.46C398.75,102.188 411.675,95.282 412.748,93.929C413.82,92.576 417.461,88.283 415.873,83.991C414.287,79.698 412.048,79.512 410.602,77.879C409.157,76.246 408.622,75.275 408.596,74.52C408.571,73.764 414.428,70.087 419.42,68.594C424.414,67.101 439.391,65.841 446.203,67.568C453.015,69.294 465.941,70.321 468.553,72.654C471.166,74.987 472.987,81.286 468.553,89.078C464.121,96.87 460.809,106.108 459.455,108.488C458.101,110.868 453.017,119.92 451.242,122.066C449.469,124.212 445.783,127.992 445.131,128.131C444.479,128.272 442.098,129.065 441.631,126.965C441.164,124.865 438.412,115.02 436.313,111.707C434.211,108.395 429.407,104.288 427.633,103.682C425.859,103.076 416.388,109.655 414.754,112.08C413.121,114.507 406.683,128.364 405.75,131.257C404.816,134.151 402.111,147.868 402.856,153.327C403.602,158.786 407.662,171.665 409.668,176.704C411.675,181.743 419.793,197.233 421.054,200.64C422.315,204.047 428.006,222.431 428.053,224.484C428.1,226.538 430.106,244.174 428.658,250.52C427.21,256.866 423.246,270.538 421.939,273.15C420.633,275.763 411.162,291.394 408.548,294.52C405.934,297.646 396.977,307.12 390.069,310.85C383.165,314.582 373.319,318.784 369.073,320.37C364.827,321.956 336.878,323.87 329.364,323.544C321.852,323.216 300.717,321.956 294.37,320.837C288.023,319.718 282.472,319.439 282.099,319.95C281.725,320.464 281.867,327.743 277.013,330.169C272.159,332.595 263.249,334.788 259.049,336.28C254.85,337.774 242.392,339.592 238.845,340.294C235.299,340.993 219.574,344.261 217.382,345.054C215.19,345.847 205.495,347.068 205.017,347.013C204.538,346.96 202.311,349.3 200.398,349.999C198.485,350.698 194.146,350.466 193.679,349.438C193.213,348.413 192.641,348.413 192.431,348.448C192.221,348.483 191.303,349.802 190.996,349.778C190.69,349.751 190.288,349.042 189.876,349.007C189.465,348.972 187.147,351.142 186.691,351.351C186.236,351.562 186.052,351.474 185.781,351.351C185.51,351.23 185.3,350.033 185.256,349.847C185.212,349.663 185.886,347.292 186.306,346.685C186.726,346.08 185.373,345.472 185.979,344.82C186.585,344.168 185.699,338.615 186.212,334.601C186.725,330.587 191.158,327.324 193.071,326.761C194.984,326.202 199.09,325.175 199.557,324.943C200.023,324.711 204.036,322.75 204.829,322.05C205.622,321.349 211.221,319.39 211.921,319.155C212.621,318.923 215.794,317.71 216.494,317.428C217.194,317.149 218.64,316.776 218.407,315.141C218.174,313.508 217.033,311.264 216.634,311.037C216.235,310.808 203.616,308.33 198.484,306.791C193.351,305.25 187.472,302.684 186.352,301.984C185.232,301.285 183.973,300.211 183.413,300.584C182.853,300.957 183.6,302.918 182.9,303.805C182.2,304.692 173.895,312.623 171.002,315.842C168.109,319.063 164.796,324.895 161.95,328.488C159.104,332.08 157.564,336.326 152.898,337.541C148.232,338.754 138.526,337.773 133.067,337.82C127.608,337.867 123.175,337.166 119.209,337.867C115.243,338.566 109.457,339.779 108.617,339.638C107.777,339.497 107.072,339.177 106.751,339.218C106.43,339.259 105.59,339.784 105.223,339.888C104.856,339.993 103.316,340.29 103.018,340.134C102.721,339.976 101.496,340.152 101.216,340.29C100.936,340.431 99.93,340.774 99.764,340.694C99.597,340.612 99.023,340.034 98.493,340.034C97.963,340.034 96.183,340.384 95.857,340.313C95.53,340.245 93.407,340.36 92.031,340.36C90.655,340.36 89.231,340.43 88.531,340.85C87.831,341.27 86.572,341.528 86.011,341.481C85.45,341.432 84.844,341.948 84.681,341.993C84.517,342.04 84.214,341.432 84.191,341.153C84.168,340.874 85.125,339.194 85.614,338.26C86.103,337.326 85.87,337.235 86.944,336.369C88.018,335.506 88.18,335.39 88.671,334.994C89.161,334.596 89.557,334.34 89.511,334.246C89.464,334.154 89.196,334.197 88.881,334.34C88.566,334.485 86.478,335.297 85.918,335.647C85.358,335.999 84.238,336.836 83.725,337.303C83.212,337.77 82.488,338.448 82.325,338.26C82.161,338.072 81.876,336.819 81.905,336.533C81.934,336.246 83.235,332.334 83.468,331.935C83.701,331.539 84.005,330.863 84.495,330.419C84.985,329.976 84.355,329.718 83.958,330.046C83.562,330.372 82.442,330.771 82.349,331.048C82.255,331.329 81.952,330.349 82.162,329.929C82.372,329.509 82.885,328.878 83.189,328.437C83.492,327.994 84.192,327.339 84.519,327.13C84.846,326.919 83.679,326.71 83.236,326.849C82.793,326.99 82.046,326.781 82.326,326.382C82.606,325.987 84.752,323.653 85.359,323.349C85.966,323.046 88.952,321.439 89.278,321.343C89.604,321.249 90.351,321.204 90.608,321.111C90.864,321.017 93.594,319.152 94.947,318.8C96.301,318.45 98.377,318.497 98.913,318.683C99.45,318.872 101.036,318.964 101.479,318.685C101.922,318.406 102.809,316.794 103.369,316.656C103.929,316.515 108.688,315.396 110.298,315.094C111.907,314.789 117.25,313.576 118.533,313.532C119.816,313.485 125.112,313.6 125.602,313.671C126.092,313.741 128.355,313.814 128.518,313.788C128.682,313.765 129.685,313.556 129.801,313.438C129.918,313.321 125.882,312.692 121.986,312.364C118.09,312.038 113.097,311.456 109.668,311.315C106.239,311.174 100.406,311.456 98.423,312.294C96.44,313.134 94.083,313.974 93.57,313.927C93.056,313.88 92.287,314.394 91.727,314.511C91.167,314.628 89.814,314.605 89.161,314.443C88.508,314.279 87.481,313.718 87.038,313.742C86.595,313.766 84.542,313.719 83.655,314.443C82.769,315.166 82.092,315.351 81.719,315.539C81.345,315.727 80.36,315.674 80.325,315.48C80.29,315.289 80.605,314.08 80.832,313.695C81.059,313.31 82.092,310.914 82.319,310.617C82.547,310.318 82.861,309.287 83.019,309.094C83.177,308.903 83.422,308.01 83.614,307.66C83.806,307.308 84.101,306.687 84.034,306.539C83.967,306.391 82.512,306.941 82.372,306.906C82.232,306.871 81.409,307.572 81.112,307.711C80.815,307.852 79.951,307.797 79.876,307.631C79.801,307.465 80.587,305.807 80.762,305.578C80.937,305.348 82.116,304.564 82.255,304.41C82.395,304.256 83.317,303.215 83.375,303.012C83.433,302.807 83.585,302.217 83.468,302.078C83.351,301.937 81.759,301.506 81.695,301.238C81.631,300.968 84.261,297.506 86.594,296.199C88.927,294.891 89.673,294.518 89.906,294.145C90.139,293.771 90.139,292.464 91.119,291.953C92.099,291.439 93.779,291.018 94.292,290.599C94.805,290.178 94.683,289.818 95.272,289.48C95.861,289.141 106.47,288.592 113.049,289.2C119.628,289.806 124.247,289.573 127.886,286.307C131.526,283.039 134.605,274.782 132.505,269.743C130.405,264.704 133.625,267.177 128.353,263.817C123.08,260.458 118.694,250.939 118.414,248.7C118.134,246.46 117.061,248.841 114.262,245.806C111.463,242.771 105.397,223.69 104.557,220.19C103.717,216.691 104.65,214.264 105.023,213.706C105.397,213.144 103.723,211.391 103.343,209.413C102.964,207.434 103.576,194.481 104.556,190.655C105.535,186.829 110.342,175.864 111.415,174.417C112.488,172.971 113.074,172.787 113.235,172.505C113.395,172.222 112.815,169.705 113.608,163.779C114.401,157.853 118.274,151.18 118.787,150.294C119.3,149.408 119.44,148.988 119.487,148.568C119.634,147.245 117.14,145.236 116.781,143.622C116.221,141.102 116.361,140.402 116.408,139.796C116.454,139.19 115.755,137.755 114.775,137.276C113.795,136.797 110.389,140.029 104.183,141.709C97.977,143.389 93.142,142.444 91.771,142.456C90.401,142.468 72.828,150.294 65.315,155.101C57.803,159.907 51.597,163.919 50.477,164.48C49.357,165.04 45.811,170.826 44.738,171.292C43.665,171.759 43.105,172.412 43.338,173.019C43.571,173.625 43.898,174.885 44.178,175.399C44.458,175.912 45.112,176.256 44.878,176.798C44.645,177.341 43.758,177.218 43.524,177.125C43.291,177.031 42.218,176.052 41.891,175.958C41.564,175.865 39.931,175.258 39.651,174.792C39.371,174.325 38.904,174.465 38.251,173.812C37.598,173.159 31.719,174.792 29.666,174.326C27.613,173.859 24.02,172.599 23.74,172.04C23.46,171.479 22.76,171.153 22.433,171.34C22.106,171.527 22.153,173.253 22.62,174.233C23.087,175.213 24.234,176.594 24.113,176.94C23.992,177.285 23.211,177.05 22.853,176.846C22.495,176.642 16.507,170.127 16.181,168.028C15.855,165.929 15.856,165.621 15.668,165.508C15.48,165.395 12.402,165.414 9.275,158.976C6.149,152.537 6.056,150.017 6.802,146.33C7.549,142.644 5.698,140.404 6.638,137.867C7.968,134.28 13.561,134.024 17.574,132.11C21.587,130.198 30.574,123.484 35.217,111.008C39.588,99.264 39.705,95.551 39.621,94.194C39.568,93.354 38.355,89.555 38.81,86.419C39.078,84.57 47.197,77.607 50.148,72.935C52.931,68.531 60.133,62.343 61.207,61.644C62.28,60.944 63.056,60.412 63.307,60.197C63.593,59.953 63.494,57.585 63.82,56.558C64.147,55.531 65.033,54.504 65.453,54.225C65.836,53.946 66.904,53.65 67.26,53.171L67.307,53.163ZM209.477,132.98C209.617,131.884 209.255,122.435 208.672,121.992C208.089,121.549 204.507,126.436 203.702,127.837C202.897,129.236 200.413,133.156 200.307,134.731C200.203,136.306 199.922,138.895 201.322,140.295C202.722,141.694 206.256,143.725 206.746,143.829C207.236,143.934 207.551,143.269 207.796,142.43C208.041,141.591 208.706,137.811 208.846,136.691C208.976,135.581 209.326,134.091 209.466,132.991L209.477,132.98ZM196.917,87.837C196.089,87.137 189.148,91.057 187.644,94.275C186.139,97.495 183.584,101.379 184.775,104.984C185.964,108.588 189.674,110.408 192.508,110.478C195.343,110.547 199.927,112.542 202.167,112.823C204.407,113.102 205.596,113.802 206.051,113.208C206.506,112.614 204.756,102.01 203.706,100.015C202.656,98.021 201.291,94.707 200.883,94.101C200.473,93.5 197.743,88.541 196.923,87.842L196.917,87.837Z" style="fill:rgb(236,236,236);fill-rule:nonzero;"/>
    </g>
</svg>
